svgs/solid/circle-b.svg

<svg xmlns="http://www.w3.org/2000/svg" viewBox="0 0 512 512"><!--! Font Awesome Pro 6.2.0 by @fontawesome - https://fontawesome.com License - https://fontawesome.com/license (Commercial License) Copyright 2022 Fonticons, Inc. --><path d="M256 512c141.4 0 256-114.6 256-256S397.4 0 256 0S0 114.6 0 256S114.6 512 256 512zM160 152c0-13.3 10.7-24 24-24h92c42 0 76 34 76 76c0 16.2-5.1 31.3-13.8 43.7C356.3 261.6 368 283.4 368 308c0 42-34 76-76 76H184c-13.3 0-24-10.7-24-24V256 152zm144 52c0-15.5-12.5-28-28-28H208v56h68c15.5 0 28-12.5 28-28zM208 336h84c15.5 0 28-12.5 28-28s-12.5-28-28-28H276 208v56z"/></svg>

<svg xmlns="http://www.w3.org/2000/svg" viewBox="0 0 512 512"><!--! Font Awesome Pro 6.1.2 by @fontawesome - https://fontawesome.com License - https://fontawesome.com/license (Commercial License) Copyright 2022 Fonticons, Inc. --><path d="M292 280H208v56h84C307.4 336 320 323.4 320 308S307.4 280 292 280zM304 204c0-15.44-12.56-28-28-28H208v56h68C291.4 232 304 219.4 304 204zM256 0C114.6 0 0 114.6 0 256s114.6 256 256 256s256-114.6 256-256S397.4 0 256 0zM292 384H184C170.8 384 160 373.3 160 360v-208C160 138.8 170.8 128 184 128h92C317.9 128 352 162.1 352 204c0 16.35-5.301 31.41-14.12 43.82C356.1 261.7 368 283.4 368 308C368 349.9 333.9 384 292 384z"/></svg>
